assets/shop-tab/Asset/notification.svg

<svg width="19" height="19" viewBox="0 0 19 19" fill="none" xmlns="http://www.w3.org/2000/svg">
<path fill-rule="evenodd" clip-rule="evenodd" d="M5.62004 2.87572C7.69101 -0.00521803 11.6081 -0.848158 14.6808 0.92587C17.7535 2.6999 18.982 6.51363 17.5225 9.74761L16.4443 12.1368C16.126 12.842 16.0732 13.6597 16.0204 14.476C15.9611 15.3923 15.902 16.307 15.4678 17.0591C14.8248 18.1727 13.4009 18.5542 12.2873 17.9113L1.16453 11.4896C0.0509298 10.8467 -0.330618 9.42269 0.31232 8.30909C0.747093 7.55604 1.51101 7.04724 2.27632 6.5375C2.95826 6.08329 3.64131 5.62834 4.09357 4.9992L5.62004 2.87572ZM2.83639 14.5085C2.90382 13.9962 3.50306 13.8342 3.92156 14.1372C5.47932 15.2649 6.86107 16.0675 8.61698 16.8528C9.08643 17.0627 9.24514 17.66 8.83716 17.973C8.44647 18.2728 8.00055 18.4927 7.52487 18.6202C7.0492 18.7476 6.55307 18.7802 6.06483 18.7159C5.57659 18.6516 5.10578 18.4918 4.6793 18.2455C4.25282 17.9993 3.87902 17.6715 3.57923 17.2808C3.27944 16.8901 3.05954 16.4442 2.93208 15.9685C2.80462 15.4928 2.77211 14.9967 2.83639 14.5085Z" fill="white"/>
</svg>

<svg xmlns="http://www.w3.org/2000/svg" width="19" height="19" fill="none" viewBox="0 0 19 19"><path fill="#fff" fill-rule="evenodd" d="M5.62 2.876a6.906 6.906 0 0 1 11.903 6.872l-1.079 2.389c-.318.705-.37 1.523-.424 2.339-.059.916-.118 1.831-.552 2.583a2.33 2.33 0 0 1-3.18.852L1.164 11.49a2.33 2.33 0 0 1-.853-3.18c.435-.754 1.199-1.263 1.964-1.773.682-.454 1.365-.909 1.818-1.538zM2.836 14.509c.068-.513.667-.675 1.086-.372a25 25 0 0 0 4.695 2.716c.47.21.628.807.22 1.12a3.75 3.75 0 0 1-6-3.464" clip-rule="evenodd"/></svg>
